src/standard/software/management.svg

<svg xmlns="http://www.w3.org/2000/svg" viewBox="0 0 36 36">
  <path d="M31 8.38H5a.62.62 0 0 0-.62.62v18a.62.62 0 0 0 .62.62h26a.62.62 0 0 0 .62-.62V9a.62.62 0 0 0-.62-.62Zm-.62 18H5.62V9.62h24.76Z"/>
  <path d="M19.25 21.12h7.5a.62.62 0 1 0 0-1.24h-.63V15.5a.62.62 0 0 0-1.24 0v4.38h-1.26v-2.5a.62.62 0 1 0-1.24 0v2.5h-1.26v-1.26a.62.62 0 0 0-1.24 0v1.26h-.63a.62.62 0 1 0 0 1.24Zm-7 .5A3.62 3.62 0 1 0 8.62 18a3.63 3.63 0 0 0 3.63 3.62Zm2.28-4.24h-1.65v-1.66a2.36 2.36 0 0 1 1.65 1.66Zm-2.91-1.66V18a.63.63 0 0 0 .63.62h2.28a2.37 2.37 0 1 1-2.91-2.9Z"/>
</svg>

<svg id="b2efdb33-99e4-4ba2-a46c-685fb0c68f48" data-name="Icon" xmlns="http://www.w3.org/2000/svg" viewBox="0 0 36 36">
  <g>
    <path d="M31,8.38H5A.62.62,0,0,0,4.38,9V27a.62.62,0,0,0,.62.62H31a.62.62,0,0,0,.62-.62V9A.62.62,0,0,0,31,8.38Zm-.62,18H5.62V9.62H30.38Z"/>
    <path d="M19.25,21.12h7.5a.62.62,0,1,0,0-1.24h-.63V15.5a.62.62,0,0,0-1.24,0v4.38H23.62v-2.5a.62.62,0,1,0-1.24,0v2.5H21.12V18.62a.62.62,0,0,0-1.24,0v1.26h-.63a.62.62,0,1,0,0,1.24Z"/>
    <path d="M12.25,21.62A3.62,3.62,0,1,0,8.62,18,3.63,3.63,0,0,0,12.25,21.62Zm2.28-4.24H12.88V15.72A2.36,2.36,0,0,1,14.53,17.38Zm-2.91-1.66V18a.63.63,0,0,0,.63.62h2.28a2.37,2.37,0,1,1-2.91-2.9Z"/>
  </g>
</svg>
